icons/folder-television-open.svg

<svg xmlns="http://www.w3.org/2000/svg" viewBox="0 0 32 32"><path d="M28.96692,12H9.44152a2,2,0,0,0-1.89737,1.36754L4,24V10H28a2,2,0,0,0-2-2H15.1241a2,2,0,0,1-1.28038-.46357L12.5563,6.46357A2,2,0,0,0,11.27592,6H4A2,2,0,0,0,2,8V24a2,2,0,0,0,2,2H26l4.80523-11.21213A2,2,0,0,0,28.96692,12Z" style="fill:#fbc02d"/><path d="M30,12H14a2,2,0,0,0-2,2V24a2,2,0,0,0,2,2h4v2h8V26h4a2,2,0,0,0,2-2V14A2,2,0,0,0,30,12Zm0,12H14V14H30Z" style="fill:#fff9c4"/></svg>

<svg xmlns="http://www.w3.org/2000/svg" viewBox="0 0 32 32"><path fill="#fbc02d" d="M28.967 12H9.442a2 2 0 0 0-1.898 1.368L4 24V10h24a2 2 0 0 0-2-2H15.124a2 2 0 0 1-1.28-.464l-1.288-1.072A2 2 0 0 0 11.276 6H4a2 2 0 0 0-2 2v16a2 2 0 0 0 2 2h22l4.805-11.212A2 2 0 0 0 28.967 12Z"/><path fill="#fff9c4" d="M30 12H14a2 2 0 0 0-2 2v10a2 2 0 0 0 2 2h4v2h8v-2h4a2 2 0 0 0 2-2V14a2 2 0 0 0-2-2Zm0 12H14V14h16Z"/></svg>
